**kern	**kern	**dynam
*part1	*part1	*part1
*staff2	*staff1	*
*I"Piano	*	*
*clefF4	*clefG2	*
*k[b-e-a-]	*k[b-e-a-]	*
=1	=1	=1
4.E-	4.B- 4.e- 4.g	<
8G	8B- 8e-	.
=	=	=
4.F	4.B- 4.d 4.a-	.
8F	8B- 8d 8a-	.
=	=	=
4.A-	4.B- 4.d	.
8A-	8B- 8d 8f	.
=	=	=
4.G	4.B- 4.e- 4.b-	.
8G	8B- 8e- 8b-	.
=	=	=
4c	4.e- 4.a-	.
8B-L	.	.
8A-J	8e- 8a- 8cc	[
=	=	=
4.G	4.e- 4.b-	.
8G	8e- 8b-	.
=	=	=
4c	4.e- 4.a-	.
8B-L	.	.
8A-J	8e- 8a- 8cc	.
=	=	=
4.G	4.e- 4.b-	.
8r	8r	.
=	=	=
*-	*-	*-
!!!system-decoration: {(s1,s2)}
